{
  "type": "map",
  "version": "1.10",
  "tiledversion": "1.10.2",
  "orientation": "orthogonal",
  "renderorder": "right-down",
  "width": 1536,
  "height": 1024,
  "tilewidth": 1,
  "tileheight": 1,
  "infinite": false,
  "layers": [
    {
      "id": 1,
      "name": "collisions",
      "type": "objectgroup",
      "objects": [
        { "id": 1, "name": "parchment_north", "type": "solid", "x": 0, "y": 0, "width": 1536, "height": 86 },
        { "id": 2, "name": "parchment_south", "type": "solid", "x": 0, "y": 918, "width": 1536, "height": 106 },
        { "id": 3, "name": "parchment_west", "type": "solid", "x": 0, "y": 0, "width": 90, "height": 1024 },
        { "id": 4, "name": "parchment_east", "type": "solid", "x": 1448, "y": 0, "width": 88, "height": 1024 },
        { "id": 5, "name": "research_desks", "type": "solid", "x": 180, "y": 190, "width": 420, "height": 260 },
        { "id": 6, "name": "archive_room_cabinets", "type": "solid", "x": 700, "y": 154, "width": 190, "height": 260 },
        { "id": 7, "name": "conference_table", "type": "solid", "x": 940, "y": 252, "width": 390, "height": 205 },
        { "id": 8, "name": "historian_desk", "type": "solid", "x": 240, "y": 585, "width": 390, "height": 170 },
        { "id": 9, "name": "copier_station", "type": "solid", "x": 990, "y": 555, "width": 210, "height": 120 },
        { "id": 10, "name": "coffee_station", "type": "solid", "x": 1190, "y": 690, "width": 175, "height": 135 },
        { "id": 11, "name": "central_wall_left", "type": "solid", "x": 648, "y": 92, "width": 42, "height": 820 },
        { "id": 12, "name": "central_wall_right", "type": "solid", "x": 900, "y": 92, "width": 36, "height": 820 }
      ]
    },
    {
      "id": 2,
      "name": "doors",
      "type": "objectgroup",
      "objects": [
        { "id": 13, "name": "world_exit", "type": "door", "x": 700, "y": 852, "width": 150, "height": 70, "properties": [
          { "name": "label", "type": "string", "value": "Return to World Map" },
          { "name": "targetScene", "type": "string", "value": "WorldMapScene" }
        ] },
        { "id": 14, "name": "foggy_bottom_door", "type": "door", "x": 690, "y": 455, "width": 170, "height": 84, "properties": [
          { "name": "label", "type": "string", "value": "Foggy Bottom Street" },
          { "name": "targetScene", "type": "string", "value": "GameplayMapScene" },
          { "name": "targetMap", "type": "string", "value": "foggy_bottom" },
          { "name": "spawn", "type": "string", "value": "truman_entry" }
        ] }
      ]
    },
    {
      "id": 3,
      "name": "spawns",
      "type": "objectgroup",
      "objects": [
        { "id": 15, "name": "entry", "type": "spawn", "point": true, "x": 770, "y": 850 },
        { "id": 16, "name": "foggy_return", "type": "spawn", "point": true, "x": 776, "y": 530 }
      ]
    },
    {
      "id": 4,
      "name": "interactions",
      "type": "objectgroup",
      "objects": [
        { "id": 17, "name": "historian_in_chief", "type": "npc", "x": 370, "y": 530, "width": 140, "height": 92, "properties": [
          { "name": "label", "type": "string", "value": "Historian-in-Chief" },
          { "name": "action", "type": "string", "value": "historian-chief" }
        ] },
        { "id": 18, "name": "frus_bookshelf", "type": "interaction", "x": 132, "y": 520, "width": 150, "height": 125, "properties": [
          { "name": "label", "type": "string", "value": "FRUS Bookshelf" },
          { "name": "action", "type": "string", "value": "frus-bookshelf" }
        ] },
        { "id": 19, "name": "coffee_station", "type": "interaction", "x": 1230, "y": 682, "width": 170, "height": 142, "properties": [
          { "name": "label", "type": "string", "value": "Coffee Station" },
          { "name": "text", "type": "string", "value": "The coffee is strong enough to support a full annotation pass." }
        ] }
      ]
    }
  ]
}
